lib/flags/s/531.svg

<svg xmlns="http://www.w3.org/2000/svg" fill="none" viewBox="0 0 16 12"><mask id="531_svg__a" width="16" height="12" x="0" y="0" mask-type="alpha" maskUnits="userSpaceOnUse"><path fill="#fff" d="M0 0H16V12H0z"/></mask><g mask="url(#531_svg__a)"><path fill="#2E42A5" fill-rule="evenodd" d="M0 0V12H16V0H0Z" clip-rule="evenodd"/><mask id="531_svg__b" width="16" height="12" x="0" y="0" mask-type="alpha" maskUnits="userSpaceOnUse"><path fill="#fff" fill-rule="evenodd" d="M0 0V12H16V0H0Z" clip-rule="evenodd"/></mask><g fill-rule="evenodd" clip-rule="evenodd" mask="url(#531_svg__b)"><path fill="#F7FCFF" d="M2.12721 3.07461 1.13279 3.59946 1.61292 2.66526 1 1.98157 1.76167 1.95346 2.12721 1 2.40617 1.95346 3.29748 1.98157 2.65574 2.66526 3.06286 3.59946 2.12721 3.07461zM5.67613 5.53829 4.44882 6.0524 4.93031 4.76409 3.86322 3.89965H5.14187L5.67613 2.5061 6.08384 3.89965H7.36446L6.45445 4.76409 6.90631 6.0524 5.67613 5.53829z"/><path fill="#F9E813" d="M0 7V9H16V7H0Z"/></g></g></svg>

<svg xmlns="http://www.w3.org/2000/svg" fill="none" viewBox="0 0 16 12"><mask id="531_svg__a" width="16" height="12" x="0" y="0" maskUnits="userSpaceOnUse"><path fill="#fff" d="M0 0h16v12H0z"/></mask><g mask="url(#531_svg__a)"><path fill="#2E42A5" fill-rule="evenodd" d="M0 0v12h16V0H0z" clip-rule="evenodd"/><mask id="531_svg__b" width="16" height="12" x="0" y="0" maskUnits="userSpaceOnUse"><path fill="#fff" fill-rule="evenodd" d="M0 0v12h16V0H0z" clip-rule="evenodd"/></mask><g fill-rule="evenodd" clip-rule="evenodd" mask="url(#531_svg__b)"><path fill="#F7FCFF" d="M2.127 3.075l-.994.524.48-.934L1 1.982l.762-.029L2.127 1l.28.953.89.029-.641.683.407.934-.936-.524zm3.549 2.463l-1.227.514.481-1.288L3.863 3.9h1.279l.534-1.394.408 1.394h1.28l-.91.864.452 1.288-1.23-.514z"/><path fill="#F9E813" d="M0 7v2h16V7H0z"/></g></g></svg>
